X: 41879
T: Vlashka Igra
R: slide
M: 12/8
K: Amajor
|:EFG ~A2 E ABc ~e2 c|edc ~B2 A ~c2 E ~c2 A|
EFG ~A2 E ABc ~e2 c|edc ~B2 G A2 z A3:|
|:edc edc ~B2 A ~c2 A|edc ~B2 A ~c2 A ~c2 A|
edc edc ~B2 A ~c2 A|edc ~B2 G A2 z [E3A3]:|
|:B^AB cdB ~c2 B ^A2 ^G|B^AB ~c2 B ~^A2 =G F2 E|
B^AB cdB ^A2 =G F2 E|F=GE F2 c F3 F3:|
|:B^AB ~c2 B ~^A2 =G F2 E|^ABF B^A=G F2 E F2 E|
B^AB ~c2 B ~^A2 =G F2 E|F=GE F2 c F3 F3:|

